X: 18
T: Jigs 8 - Muineira de Chao*
T:Indian Point
M:6/8
K:Em
"Em"B,EF G2A | "Em"BAG "D"FED | "C"CEF G2A | "C"BAG "Am"BAG |
"D"FED A,2D | "Bm"FEF AGF |1"Em"EFG BAG|"Bm"F3 FED :|2 "Em"GFE "Bm"FED | "Em"E3 -E2B ||
"Em"Bef gfe | "C"cef "Am"gfe | "D"dfg agf | "Em"gfe "D"fed |
"Em"Bef "Em"gfe | "C"ceg "Am"a2a | "B"bag fgf |1 "Em"e3 "B7"edc:|2 "Em"e3 -e3||
T: Chao
K: Dmaj
DEF |: DEF DEF | ~G3 EFG | EFG EFG | ~A3 DEF |
DEF DEF | ~G3 EFG | ~A3 GFE |1 ~D3 DEF :|2 ~D3 DED ||
~B3 B FG | ~A3 AEF | ~G3 GFE | ~A3 DED |
~B3 B FG | ~A3 AEF | ~G3 GFE |1 ~D3 DED :|2 ~D3 DEF ||
%%newpage

